assets/symbols/mulberry/cooker.svg

<svg height="850.394" viewBox="0 0 850.394 850.394" width="850.394" xmlns="http://www.w3.org/2000/svg"><g fill="#c8c8c8"><path d="m528.42 450.39v152.64h-350.5v-152.64h329.58zm-161.71 0h-188.79v-123.58z"/><path d="m507.5 450.39h-140.79l-188.79-123.58v-14.47h120.75v1.36z"/><path d="m528.42 375.22v75.17h-20.92l-208.83-136.69v-1.36h129.94z"/><path d="m528.42 312.34v62.88l-99.81-62.88zm0-107.39v107.39h-350.5v-107.39zm164.14-41.41v472.47l-121.17-24.35-42.97-8.63v-398.08l42.97-10.84z"/></g><path d="m571.71 646.74v127.31h-432.91v-127.31h432.59zm-393.79-319.93v276.22h350.5l42.97 8.63v35.08h-432.59v-483.2h432.59v30.57l-42.97 10.84h-350.5v107.39zm393.47-177.08v13.81h-432.59v-90.51h432.59zm-34.53-15.34v-31.44h-39.12v31.44zm-73.95-15.92c0-8.4-6.83-15.2-15.22-15.2-8.381 0-15.19 6.8-15.19 15.2 0 8.41 6.81 15.21 15.19 15.21 8.39 0 15.22-6.8 15.22-15.21zm-68.65.06c0-8.4-6.82-15.21-15.22-15.21-8.39 0-15.2 6.81-15.2 15.21 0 8.41 6.81 15.21 15.2 15.21 8.4 0 15.22-6.8 15.22-15.21zm-68.24-.06c0-8.4-6.82-15.2-15.22-15.2-8.38 0-15.2 6.8-15.2 15.2 0 8.41 6.82 15.21 15.2 15.21 8.4 0 15.22-6.8 15.22-15.21zm-65.61 0c0-8.4-6.82-15.2-15.22-15.2-8.39 0-15.2 6.8-15.2 15.2 0 8.41 6.81 15.21 15.2 15.21 8.4 0 15.22-6.8 15.22-15.21z" fill="#fff"/><path d="m497.74 102.95h39.12v31.44h-39.12zm-50.05.32c8.39 0 15.22 6.8 15.22 15.2 0 8.41-6.83 15.21-15.22 15.21-8.381 0-15.19-6.8-15.19-15.21 0-8.4 6.81-15.2 15.19-15.2zm-68.65.05c8.4 0 15.22 6.81 15.22 15.21 0 8.41-6.82 15.21-15.22 15.21-8.39 0-15.2-6.8-15.2-15.21 0-8.4 6.81-15.21 15.2-15.21zm-68.24-.05c8.4 0 15.22 6.8 15.22 15.2 0 8.41-6.82 15.21-15.22 15.21-8.38 0-15.2-6.8-15.2-15.21 0-8.4 6.82-15.2 15.2-15.2zm-65.61 0c8.4 0 15.22 6.8 15.22 15.2 0 8.41-6.82 15.21-15.22 15.21-8.39 0-15.2-6.8-15.2-15.21 0-8.4 6.81-15.2 15.2-15.2z" fill="#ff001c"/><g fill="none" stroke="#231f20"><g stroke-width="21.262"><path d="m528.42 204.95 42.97-10.84 121.17-30.57v472.47l-121.17-24.35-42.97-8.63m42.97 43.71v-35.08"/><path d="m571.39 194.11v-121.08h-432.59v573.71m0-483.2h432.59"/><path d="m177.92 450.39v152.64h350.5v-398.08h-350.5v121.86zm350.5-138.05h-350.5m350.5 138.05h-350.5m350.5-75.17-99.81-62.88m78.89 138.05-208.83-136.69"/><path d="m366.71 450.39-188.79-123.58-.01-.01m528.46 120.54h18.4v-93.59h-18.4"/></g><path d="m497.74 102.95h39.12v31.44h-39.12zm-65.24 15.52c0 8.41 6.81 15.21 15.19 15.21 8.39 0 15.22-6.8 15.22-15.21 0-8.4-6.83-15.2-15.22-15.2-8.38 0-15.19 6.8-15.19 15.2zm-68.66.06c0 8.41 6.81 15.21 15.2 15.21 8.4 0 15.22-6.8 15.22-15.21 0-8.4-6.82-15.21-15.22-15.21-8.39 0-15.2 6.81-15.2 15.21zm-68.24-.06c0 8.41 6.82 15.21 15.2 15.21 8.4 0 15.22-6.8 15.22-15.21 0-8.4-6.82-15.2-15.22-15.2-8.38 0-15.2 6.8-15.2 15.2zm-65.61 0c0 8.41 6.81 15.21 15.2 15.21 8.4 0 15.22-6.8 15.22-15.21 0-8.4-6.82-15.2-15.22-15.2-8.39 0-15.2 6.8-15.2 15.2z" stroke-width="14.175"/><path d="m571.39 646.74h.32v127.31h-432.91v-127.31z" stroke-width="21.262"/></g><path d="m0 0h850.394v850.394h-850.394z" fill="none"/></svg>

<svg xmlns="http://www.w3.org/2000/svg" width="850.394" height="850.394" viewBox="0 0 850.394 850.394" overflow="visible"><path fill="#c8c8c8" d="M528.42 450.39v152.64h-350.5V450.39H507.5zM366.71 450.39H177.92V326.81z"/><path fill="#c8c8c8" d="M507.5 450.39H366.71L177.92 326.81v-14.47h120.75v1.36z"/><path fill="#c8c8c8" d="M528.42 375.22v75.17H507.5L298.67 313.7v-1.36h129.94z"/><path fill="#c8c8c8" d="M528.42 312.34v62.88l-99.81-62.88zM528.42 204.95v107.39h-350.5V204.95zM692.56 163.54v472.47l-121.17-24.35-42.97-8.63V204.95l42.97-10.84z"/><path fill="#fff" d="M571.71 646.74v127.31H138.8V646.74h432.59zM177.92 326.81V603.03h350.5l42.97 8.63v35.08H138.8v-483.2h432.59v30.57l-42.97 10.84h-350.5v107.39zM571.39 149.73v13.81H138.8V73.03h432.59v76.7zm-34.53-15.34v-31.44h-39.12v31.44h39.12zm-73.95-15.92c0-8.4-6.83-15.2-15.22-15.2-8.381 0-15.19 6.8-15.19 15.2 0 8.41 6.81 15.21 15.19 15.21 8.39 0 15.22-6.8 15.22-15.21zm-68.65.06c0-8.4-6.82-15.21-15.22-15.21-8.39 0-15.2 6.81-15.2 15.21 0 8.41 6.81 15.21 15.2 15.21 8.4 0 15.22-6.8 15.22-15.21zm-68.24-.06c0-8.4-6.82-15.2-15.22-15.2-8.38 0-15.2 6.8-15.2 15.2 0 8.41 6.82 15.21 15.2 15.21 8.4 0 15.22-6.8 15.22-15.21zm-65.61 0c0-8.4-6.82-15.2-15.22-15.2-8.39 0-15.2 6.8-15.2 15.2 0 8.41 6.81 15.21 15.2 15.21 8.4 0 15.22-6.8 15.22-15.21z"/><path fill="#ff001c" d="M497.74 102.95h39.12v31.44h-39.12zM447.69 103.27c8.39 0 15.22 6.8 15.22 15.2 0 8.41-6.83 15.21-15.22 15.21-8.381 0-15.19-6.8-15.19-15.21 0-8.4 6.81-15.2 15.19-15.2zM379.04 103.32c8.4 0 15.22 6.81 15.22 15.21 0 8.41-6.82 15.21-15.22 15.21-8.39 0-15.2-6.8-15.2-15.21 0-8.4 6.81-15.21 15.2-15.21zM310.8 103.27c8.4 0 15.22 6.8 15.22 15.2 0 8.41-6.82 15.21-15.22 15.21-8.38 0-15.2-6.8-15.2-15.21 0-8.4 6.82-15.2 15.2-15.2zM245.19 103.27c8.4 0 15.22 6.8 15.22 15.2 0 8.41-6.82 15.21-15.22 15.21-8.39 0-15.2-6.8-15.2-15.21 0-8.4 6.81-15.2 15.2-15.2z"/><g fill="none" stroke="#231f20"><path stroke-width="21.262" d="M528.42 204.95l42.97-10.84 121.17-30.57v472.47l-121.17-24.35-42.97-8.63M571.39 646.74v-35.08"/><path stroke-width="21.262" d="M571.39 194.11V73.03H138.8v573.71M138.8 163.54h432.59"/><path stroke-width="21.262" d="M177.92 450.39v152.64h350.5V204.95h-350.5v121.86zM528.42 312.34h-350.5M528.42 450.39h-350.5M528.42 375.22l-99.81-62.88M507.5 450.39L298.67 313.7"/><path stroke-width="21.262" d="M366.71 450.39L177.92 326.81l-.01-.01M706.37 447.34h18.4v-93.59h-18.4"/><path stroke-width="14.175" d="M497.74 102.95h39.12v31.44h-39.12zM432.5 118.47c0 8.41 6.81 15.21 15.19 15.21 8.39 0 15.22-6.8 15.22-15.21 0-8.4-6.83-15.2-15.22-15.2-8.38 0-15.19 6.8-15.19 15.2zM363.84 118.53c0 8.41 6.81 15.21 15.2 15.21 8.4 0 15.22-6.8 15.22-15.21 0-8.4-6.82-15.21-15.22-15.21-8.39 0-15.2 6.81-15.2 15.21zM295.6 118.47c0 8.41 6.82 15.21 15.2 15.21 8.4 0 15.22-6.8 15.22-15.21 0-8.4-6.82-15.2-15.22-15.2-8.38 0-15.2 6.8-15.2 15.2zM229.99 118.47c0 8.41 6.81 15.21 15.2 15.21 8.4 0 15.22-6.8 15.22-15.21 0-8.4-6.82-15.2-15.22-15.2-8.39 0-15.2 6.8-15.2 15.2z"/><path stroke-width="21.262" d="M571.39 646.74h.32v127.31H138.8V646.74z"/></g><path fill="none" d="M0 0h850.394v850.394H0z"/></svg>
